img/arrow-prev.svg

<svg width="10" height="18" viewBox="0 0 10 18" fill="none" xmlns="http://www.w3.org/2000/svg">
<path fill-rule="evenodd" clip-rule="evenodd" d="M9.26335 0.616117C9.73273 1.10427 9.73273 1.89573 9.26335 2.38388L2.9017 9L9.26335 15.6161C9.73273 16.1043 9.73273 16.8957 9.26335 17.3839C8.79397 17.872 8.03295 17.872 7.56357 17.3839L0.352035 9.88388C-0.117345 9.39573 -0.117345 8.60427 0.352035 8.11612L7.56357 0.616117C8.03295 0.127961 8.79397 0.127961 9.26335 0.616117Z" fill="white" fill-opacity="0.8"/>
</svg>

<svg width="10" height="18" fill="none" xmlns="http://www.w3.org/2000/svg"><path fill-rule="evenodd" clip-rule="evenodd" d="M9.263.616c.47.488.47 1.28 0 1.768L2.902 9l6.361 6.616c.47.488.47 1.28 0 1.768a1.17 1.17 0 0 1-1.7 0l-7.211-7.5a1.286 1.286 0 0 1 0-1.768l7.212-7.5a1.17 1.17 0 0 1 1.7 0z" fill="#fff" fill-opacity=".8"/></svg>
